X: 4209
T: Bluebell Polka, The
R: barndance
M: 4/4
K: Dmajor
|:de|f2f2 dcdB|A2A2 F2D2|CDEF G3B|BA^GA F2Ad|
f2f2 dcdB|A2A2 F2D2|CDEF GABc|d2f2d3:|
|:A2A2 FAdf|a2a2 f3g|a2a2 g2e2|b2a2 f2a2|
A2A2 FAdf|a2a2 f3g|a2a2 g2e2|e2d2 d4:|
K: Gmaj
|:c|B2B2 Bcd2|B2B2 Bcd2|c2c2 cAFA|c2c2 cAFA|
B2B2 Bcd2|B2BA Bcd2|c2c2 cAFA|A2G2 G4:|

